packages/katcn/src/icons/svg/programCode.svg

<svg width="24" height="25" viewBox="0 0 24 25" fill="none" xmlns="http://www.w3.org/2000/svg">
<path d="M18.4767 2.97601H5.62028C3.10926 2.97601 1 5.07601 1 7.57601V17.376C1 19.876 3.10926 21.976 5.62028 21.976H18.3763C20.9877 21.976 22.9966 19.876 22.9966 17.376V7.57601C23.097 5.07601 20.9877 2.97601 18.4767 2.97601ZM21.0882 17.376C21.0882 18.776 19.8829 19.976 18.4767 19.976H5.62028C4.21411 19.976 3.00882 18.776 3.00882 17.376V9.47601H19.2802C19.8829 9.47601 20.2847 9.07601 20.2847 8.47601C20.2847 7.87601 19.7824 7.47601 19.2802 7.47601H3.00882C3.10926 6.07601 4.21411 4.97601 5.62028 4.97601H18.3763C19.8829 4.97601 21.0882 6.17601 21.0882 7.57601V17.376Z" fill="black"/>
<path d="M10.656 11.3136C10.365 10.9328 9.686 10.8377 9.298 11.2184L6.291 13.7882C6.097 13.9785 6 14.2641 6 14.5496C6 14.8351 6.097 15.1207 6.291 15.311L9.298 17.7857C9.492 17.976 9.686 17.976 9.977 17.976C10.268 17.976 10.559 17.8808 10.753 17.6905C11.141 17.3098 11.044 16.7387 10.656 16.358L8.522 14.5496L10.656 12.7412C11.044 12.2653 11.044 11.6943 10.656 11.3136Z" fill="black"/>
<path d="M14.605 11.2217C14.217 10.8358 13.538 10.9322 13.247 11.3182C12.859 11.7042 12.956 12.2831 13.344 12.6691L15.478 14.5024L13.344 16.3357C12.956 16.7216 12.859 17.3006 13.247 17.6865C13.441 17.8795 13.732 17.976 14.023 17.976C14.217 17.976 14.508 17.8795 14.702 17.783L17.709 15.1778C17.903 14.9848 18 14.6954 18 14.4059C18 14.1164 17.903 13.8269 17.709 13.634L14.605 11.2217Z" fill="black"/>
</svg>

<svg xmlns="http://www.w3.org/2000/svg" fill="none" viewBox="0 0 24 25"><path fill="#000" d="M18.477 2.976H5.62c-2.51 0-4.62 2.1-4.62 4.6v9.8c0 2.5 2.11 4.6 4.62 4.6h12.756c2.612 0 4.62-2.1 4.62-4.6v-9.8c.101-2.5-2.008-4.6-4.52-4.6m2.611 14.4c0 1.4-1.205 2.6-2.611 2.6H5.62c-1.406 0-2.611-1.2-2.611-2.6v-7.9H19.28c.603 0 1.005-.4 1.005-1s-.503-1-1.005-1H3.01c.1-1.4 1.205-2.5 2.611-2.5h12.756c1.507 0 2.712 1.2 2.712 2.6z"/><path fill="#000" d="M10.656 11.314c-.291-.381-.97-.476-1.358-.096l-3.007 2.57c-.194.19-.291.476-.291.762 0 .285.097.57.291.761l3.007 2.475c.194.19.388.19.679.19s.582-.095.776-.285c.388-.381.291-.952-.097-1.333L8.522 14.55l2.134-1.809c.388-.476.388-1.047 0-1.427m3.949-.092c-.388-.386-1.067-.29-1.358.096-.388.386-.291.965.097 1.351l2.134 1.833-2.134 1.834c-.388.386-.485.965-.097 1.35.194.194.485.29.776.29.194 0 .485-.096.679-.193l3.007-2.605c.194-.193.291-.483.291-.772s-.097-.58-.291-.772z"/></svg>
